assets/img/icon-monitor.svg

<svg width="16" height="16" viewBox="0 0 16 16" fill="none" xmlns="http://www.w3.org/2000/svg">
<g clip-path="url(#clip0_175_1231)">
<path fill-rule="evenodd" clip-rule="evenodd" d="M2.42454 2.77781C2.24235 2.96 2.08337 3.36417 2.08337 4.49331V7.88331H6.66671C7.08092 7.88331 7.41671 8.2191 7.41671 8.63331C7.41671 9.04753 7.08092 9.38331 6.66671 9.38331H2.12928C2.1894 9.8622 2.30169 10.086 2.42454 10.2088C2.60672 10.391 3.01089 10.55 4.14004 10.55H6.66671C7.08092 10.55 7.41671 10.8858 7.41671 11.3V14.3133C7.41671 14.7275 7.08092 15.0633 6.66671 15.0633H4.49337C4.07916 15.0633 3.74337 14.7275 3.74337 14.3133C3.74337 13.8991 4.07916 13.5633 4.49337 13.5633H5.91671V12.05H4.14004C3.02252 12.05 2.02336 11.929 1.36388 11.2695C0.740388 10.646 0.598188 9.71888 0.584523 8.67519C0.58376 8.66133 0.583374 8.64736 0.583374 8.63331C0.583374 8.62463 0.583521 8.61599 0.583814 8.60738C0.583515 8.5695 0.583374 8.53148 0.583374 8.49331V4.49331C0.583374 3.37579 0.704397 2.37663 1.36388 1.71715C2.02336 1.05767 3.02252 0.936646 4.14004 0.936646H11.16C12.2776 0.936646 13.2767 1.05767 13.9362 1.71715C14.5957 2.37663 14.7167 3.37579 14.7167 4.49331C14.7167 4.90753 14.3809 5.24331 13.9667 5.24331C13.5525 5.24331 13.2167 4.90753 13.2167 4.49331C13.2167 3.36417 13.0577 2.96 12.8755 2.77781C12.6934 2.59562 12.2892 2.43665 11.16 2.43665H4.14004C3.01089 2.43665 2.60672 2.59562 2.42454 2.77781ZM9.27801 7.48404C9.22089 7.54117 9.10352 7.73688 9.10352 8.53288V12.3395C9.10352 13.1356 9.22089 13.3313 9.27801 13.3884C9.33514 13.4455 9.53084 13.5629 10.3268 13.5629H12.6935C13.4895 13.5629 13.6852 13.4455 13.7424 13.3884C13.7995 13.3313 13.9168 13.1356 13.9168 12.3395V8.53288C13.9168 7.73688 13.7995 7.54117 13.7424 7.48404C13.6852 7.42692 13.4895 7.30955 12.6935 7.30955H10.3268C9.53084 7.30955 9.33514 7.42692 9.27801 7.48404ZM8.21735 6.42338C8.75189 5.88884 9.54285 5.80955 10.3268 5.80955H12.6935C13.4775 5.80955 14.2685 5.88884 14.803 6.42338C15.3376 6.95792 15.4168 7.74889 15.4168 8.53288V12.3395C15.4168 13.1235 15.3376 13.9145 14.803 14.449C14.2685 14.9836 13.4775 15.0629 12.6935 15.0629H10.3268C9.54285 15.0629 8.75189 14.9836 8.21735 14.449C7.68281 13.9145 7.60352 13.1235 7.60352 12.3395V8.53288C7.60352 7.74889 7.68281 6.95792 8.21735 6.42338ZM11.4961 11.167C10.9438 11.167 10.4961 11.6147 10.4961 12.167C10.4961 12.7193 10.9438 13.167 11.4961 13.167H11.5028C12.055 13.167 12.5028 12.7193 12.5028 12.167C12.5028 11.6147 12.055 11.167 11.5028 11.167H11.4961Z" fill="#17192A"/>
</g>
<defs>
<clipPath id="clip0_175_1231">
<rect width="16" height="16" fill="white"/>
</clipPath>
</defs>
</svg>

<svg width="16" height="16" fill="none" xmlns="http://www.w3.org/2000/svg"><g clip-path="url(#clip0_175_1231)"><path fill-rule="evenodd" clip-rule="evenodd" d="M2.425 2.778c-.183.182-.342.586-.342 1.715v3.39h4.584a.75.75 0 010 1.5H2.129c.06.48.173.703.296.826.182.182.586.341 1.715.341h2.527a.75.75 0 01.75.75v3.013a.75.75 0 01-.75.75H4.493a.75.75 0 010-1.5h1.424V12.05H4.14c-1.117 0-2.117-.121-2.776-.78-.624-.624-.766-1.551-.78-2.595a.762.762 0 010-.068V4.493c0-1.117.12-2.116.78-2.776.66-.66 1.659-.78 2.776-.78h7.02c1.118 0 2.117.12 2.776.78.66.66.78 1.659.78 2.776a.75.75 0 01-1.5 0c0-1.129-.158-1.533-.34-1.715-.183-.182-.587-.341-1.716-.341H4.14c-1.13 0-1.533.159-1.715.34zm6.853 4.706c-.057.057-.174.253-.174 1.049v3.806c0 .797.117.992.174 1.05.057.056.253.174 1.049.174h2.367c.795 0 .991-.118 1.048-.175.057-.057.175-.252.175-1.049V8.534c0-.796-.117-.992-.175-1.049-.057-.057-.253-.174-1.049-.174h-2.366c-.796 0-.992.117-1.049.174zm-1.06-1.06c.534-.535 1.325-.614 2.109-.614h2.367c.783 0 1.574.079 2.109.613.535.535.614 1.326.614 2.11v3.806c0 .784-.08 1.575-.614 2.11-.535.535-1.326.614-2.11.614h-2.366c-.784 0-1.575-.08-2.11-.614-.534-.534-.613-1.325-.613-2.11V8.534c0-.784.079-1.575.613-2.11zm3.278 4.743a1 1 0 100 2h.007a1 1 0 000-2h-.007z" fill="#17192A"/></g><defs><clipPath id="clip0_175_1231"><path fill="#fff" d="M0 0h16v16H0z"/></clipPath></defs></svg>
